X: 41532
T: Uncle Rat
R: jig
M: 6/8
K: Edorian
|:~e3 d2f|~e3 d2d|~e3 def|edB AFE|
~e3 d3|efe e2d|BdB Bcd|edB AFE:|
|:edB BAF|~B3 Bcd|edB Bcd|edB AFE|
edB BAF|~B3 BAF|~E3 def|edB AFE:|

